packages/foundations/assets/icons/functional/images/maps/location_pin_28.svg

<svg width="28" height="28" viewBox="0 0 28 28" fill="none" xmlns="http://www.w3.org/2000/svg">
<g clip-path="url(#clip0_186_57)">
<path fill-rule="evenodd" clip-rule="evenodd" d="M7 25.3673C7 25.8713 7.38281 26.25 7.875 26.25H20.2344C20.6728 26.25 21 25.8156 21 25.369C21 24.886 20.6172 24.5 20.125 24.5H7.76562C7.27344 24.5 7 24.9414 7 25.3673ZM14.0004 1.75C17.9869 1.75 21 4.93605 21 8.71526C21 10.0078 20.6475 11.3719 19.885 12.6751L14.7572 21.4395C14.5794 21.7433 14.3008 21.875 13.9962 21.875C13.6172 21.875 13.3717 21.6711 13.2344 21.4375L8.26367 12.9848C7.41982 11.5498 7 10.1172 7 8.71062C7 4.86071 10.0899 1.75 14.0004 1.75ZM14.0294 3.5C11.0469 3.5 8.75 5.80055 8.75 8.71369C8.75 9.70699 9.01705 10.7435 9.64906 11.8258L14 19.2773L18.2412 12.0851C18.838 11.0731 19.1406 10.1172 19.25 8.99605C19.25 5.6875 16.9377 3.5 14.0294 3.5ZM12.25 8.75C12.25 9.70699 13.043 10.5 14.0002 10.5C14.9571 10.5 15.75 9.70699 15.75 8.75C15.75 7.79292 14.9571 7 13.9999 7C13.043 7 12.25 7.79292 12.25 8.75Z" fill="#1A1C1F"/>
</g>
<defs>
<clipPath id="clip0_186_57">
<rect width="28" height="28" fill="white"/>
</clipPath>
</defs>
</svg>

<svg xmlns="http://www.w3.org/2000/svg" width="28" height="28" fill="none"><g clip-path="url(#a)"><path fill="#1A1C1F" fill-rule="evenodd" d="M7 25.367c0 .504.383.883.875.883h12.36c.438 0 .765-.434.765-.881a.864.864 0 0 0-.875-.869H7.765c-.492 0-.765.441-.765.867M14 1.75c3.987 0 7 3.186 7 6.965 0 1.293-.352 2.657-1.115 3.96l-5.128 8.764a.85.85 0 0 1-.76.436.85.85 0 0 1-.763-.437l-4.97-8.453C7.42 11.55 7 10.117 7 8.71c0-3.85 3.09-6.961 7-6.961m.03 1.75c-2.983 0-5.28 2.3-5.28 5.214 0 .993.267 2.03.9 3.112L14 19.277l4.241-7.192a7.2 7.2 0 0 0 1.009-3.089c0-3.309-2.312-5.496-5.22-5.496m-1.78 5.25c0 .957.793 1.75 1.75 1.75s1.75-.793 1.75-1.75S14.957 7 14 7s-1.75.793-1.75 1.75" clip-rule="evenodd"/></g><defs><clipPath id="a"><path fill="#fff" d="M0 0h28v28H0z"/></clipPath></defs></svg>
